material/.icons/material/cash-usd-outline.svg

<svg xmlns="http://www.w3.org/2000/svg" viewBox="0 0 24 24"><path d="M20 18H4V6h16m0-2H4c-1.11 0-2 .89-2 2v12a2 2 0 002 2h16a2 2 0 002-2V6a2 2 0 00-2-2m-9 13h2v-1h1a1 1 0 001-1v-3a1 1 0 00-1-1h-3v-1h4V8h-2V7h-2v1h-1a1 1 0 00-1 1v3a1 1 0 001 1h3v1H9v2h2v1z"/></svg>

<?xml version="1.0" encoding="UTF-8"?><!DOCTYPE svg PUBLIC "-//W3C//DTD SVG 1.1//EN" "http://www.w3.org/Graphics/SVG/1.1/DTD/svg11.dtd"><svg xmlns="http://www.w3.org/2000/svg" xmlns:xlink="http://www.w3.org/1999/xlink" version="1.1" id="mdi-cash-usd-outline" width="24" height="24" viewBox="0 0 24 24"><path d="M20,18H4V6H20M20,4H4C2.89,4 2,4.89 2,6V18A2,2 0 0,0 4,20H20A2,2 0 0,0 22,18V6C22,4.89 21.1,4 20,4M11,17H13V16H14A1,1 0 0,0 15,15V12A1,1 0 0,0 14,11H11V10H15V8H13V7H11V8H10A1,1 0 0,0 9,9V12A1,1 0 0,0 10,13H13V14H9V16H11V17Z" /></svg>
